X: 173
T: No_82_Song_of_the_Man_Who_Succeeded.krn
N: Derived from No_82_Song_of_the_Man_Who_Succeeded.krn
%%abc-version 2.0
%%abcx-abcm2ps-target-version 5.9.1 (29 Sep 2008)
%%abc-creator hum2abc beta
%%abcx-conversion-date 2019/03/15 08:29:13
%%humdrum-veritas 1129973486
%%humdrum-veritas-data 1048387244
%%linebreak <none>
%%barnumbers 0
L: 1/8
M: 2/4
%%staves {1 2}
V: 1 clef=bass
V: 2 clef=bass
K: A
[V:1] [K:clef=bass][M:2/4](3B,B,B, B,3/B,/ | 
[V:2] [K:clef=bass][M:2/4]G,,G,, G,,G,, | 
[V:1] B,2B,2 | 
[V:2] G,,G,, G,,G,, | 
[V:1] A,4 ||  
[V:2] z4 ||  
[V:1] [M:3/4]A,A, A,A, F,F, ||  
[V:2] [M:3/4]z6 ||  
[V:1] [M:2/4](3A,A,A, =F,3/F,/ | 
[V:2] [M:2/4]z4 | 
[V:1] A,2=F,3/F,/ | 
[V:2] z4 | 
[V:1] E,4 ||  
[V:2] z4 ||  
[V:1] [M:3/4]E,E, E,E, E,E, ||  
[V:2] [M:3/4]z6 ||  
[V:1] [M:2/4](3A,A,A, =F,3/F,/ | 
[V:2] [M:2/4]z4 | 
[V:1] =F,2F,3/F,/ | 
[V:2] z4 | 
[V:1] E,4 ||  
[V:2] z4 ||  
[V:1] [M:3/4]E,E, E,E, C,C, | 
[V:2] [M:3/4]z6 | 
[V:1] (3E,E,E,C,2C,C, ||  
[V:2] z6 ||  
[V:1] [M:2/4]A,,4 | 
[V:2] [M:2/4]z4 | 
[V:1] A,,2A,,2 |]  
[V:2] z4 |]  



